X:6
T:The Scotch Repeat
S:Ashworth's Instructor, p. 30
M:2/4
L:1/16
K:D
%%MIDI program 72
%%MIDI transpose 8
DF|A2FA d2A2|fdaf e2 Ac|e2ce g2e2|bgec d2 DF|A2FA d2A2|
fdaf e2ge|c2ec A2Bc|d2f2d2::ef|g2ec A2Bc|d2AF D2 ef|g2ec ABcA|
d2f2d2 ef|gece ABcA|dAFA Ddef|gece ABcA|d2f2d2:|]

